!!!COM:	la Rue, Pierre de
!!!CDT:	~1452///-1518/11/20
!!!OPR:	Missa Incessament
!!!ONM:	2
!!!OTL:	Gloria
!!!AGN:	Mass; Gloria
!!!SCT:	Rue1016a
!!!SCA:	Rue1016a
!!!voices:	5
!!!voices-OPR:	5
**kern	**kern	**kern	**kern	**kern
*staff5	*staff4	*staff3	*staff2	*staff1
*Ivox	*Ivox	*Ivox	*Ivox	*Ivox
*I"Bassus2	*I"Bassus1	*I"Tenor	*I"Contra	*I"Discantus
*I'B2	*I'B1	*I'T	*I'C	*I'D
*>[A,B]	*>[A,B]	*>[A,B]	*>[A,B]	*>[A,B]
*>A	*>A	*>A	*>A	*>A
*clefF4	*clefF4	*clefGv2	*clefGv2	*clefG2
*k[]	*k[]	*k[]	*k[]	*k[]
*M2/1	*M2/1	*M2/1	*M2/1	*M2/1
*met(C|)	*met(C|)	*met(C2)	*met(C2)	*met(C|)
!!primary-mensuration: met(C|)
=1-	=1-	=1-	=1-	=1-
!!section: Et in terra pax
!!!OMD: Et in terra pax
!LO:TX:X=-40:Z=8:t=[Canon at the upper fourth]	!	!	!	!
0r	0r	2.G/	0r	1.g
.	.	4A/	.	.
.	.	2B\	.	.
.	.	2c\	.	2g/
=2	=2	=2	=2	=2
0r	0r	2G/	0r	1e
.	.	1c	.	.
.	.	.	.	1d
.	.	2B\	.	.
=3	=3	=3	=3	=3
0r	0r	0c	1.g	1c
.	.	.	.	2.g/
.	.	.	2g\	.
.	.	.	.	4a/
=4	=4	=4	=4	=4
0r	0r	0r	1e	2b\
.	.	.	.	1cc
.	.	.	1d	.
.	.	.	.	2b\
=5	=5	=5	=5	=5
0r	0r	0A	2.c\	0cc
.	.	.	4d\	.
.	.	.	2e\	.
.	.	.	[2f\	.
=6	=6	=6	=6	=6
0r	0r	2.F/	4f\]	2.a/
.	.	.	4e\	.
.	.	.	1d	.
.	.	4G/	.	4b\
.	.	1E	.	1g
.	.	.	2c\	.
=7	=7	=7	=7	=7
0r	0r	0D	1d	2.f/
.	.	.	.	4g/
.	.	.	2r	2a/
.	.	.	2d\	[2d/
=8	=8	=8	=8	=8
0r	0r	0d	2.d\	2d/]
.	.	.	.	2a/
.	.	.	4e\	.
.	.	.	2f\	2b\
.	.	.	2g\	[2dd\
=9	=9	=9	=9	=9
0r	0r	2.B\	2d\	2dd\]
.	.	.	1g	4cc\
.	.	4c\	.	4b\
.	.	1A	.	1cc
.	.	.	2f#i\	.
=10	=10	=10	=10	=10
0r	0r	0G	1g	0b
.	.	.	2r	.
.	.	.	2e\	.
=11	=11	=11	=11	=11
0r	0r	2r	2f\	0r
.	.	2A/	2f\	.
.	.	2B\	2d\	.
.	.	2B\	[2g\	.
=12	=12	=12	=12	=12
1r	0r	2G/	2g\]	0r
.	.	1c	4f\	.
.	.	.	4e\	.
2r	.	.	1d	.
2G\	.	2B\	.	.
=13	=13	=13	=13	=13
2A\	0r	1c	1c	0r
2A\	.	.	.	.
1F	.	2r	2r	.
.	.	2A/	2d\	.
=14	=14	=14	=14	=14
2r	1r	2B\	2e\	0r
2E\	.	2G/	2e\	.
2F\	2r	1A	1c	.
2F\	2c\	.	.	.
=15	=15	=15	=15	=15
2D\	2d\	2r	1r	0r
2D\	2d\	2A/	.	.
1G	1B	2B\	2r	.
.	.	2G/	2e\	.
=16	=16	=16	=16	=16
0r	2r	2A/	2f\	0r
.	2A\	2F/	2f\	.
.	2B\	1G	2d\	.
.	2B\	.	2d\	.
=17	=17	=17	=17	=17
2r	2G\	0r	1g	0r
2E\	2G\	.	.	.
2F\	1c	.	1r	.
2F\	.	.	.	.
=18	=18	=18	=18	=18
1D	0r	2r	1r	0r
.	.	2A/	.	.
1G	.	2B\	2r	.
.	.	2G/	2e\	.
=19	=19	=19	=19	=19
0r	2r	2A/	2f\	0r
.	2A\	2F/	2f\	.
.	2B\	1G	1d	.
.	2B\	.	.	.
=20	=20	=20	=20	=20
2r	1G	0r	1g	0r
2E\	.	.	.	.
2F\	1c	.	2r	.
2F\	.	.	2c\	.
=21	=21	=21	=21	=21
2.D\	0r	2r	2d\	0r
.	.	2A/	2f\	.
8E\L	.	.	.	.
8F\J	.	.	.	.
2G\	.	2B\	2e\	.
[2G\	.	2G/	4d\	.
.	.	.	4c\	.
=22	=22	=22	=22	=22
2G\]	2r	2A/	1d	1r
2F\	2A\	2A/	.	.
2.G\	2B\	1G	1d	2r
.	2B\	.	.	2b\
4F\	.	.	.	.
=23	=23	=23	=23	=23
4G\	2.G\	0r	1g	2b\
4F\	.	.	.	.
4E\	.	.	.	1g
4D\	8A\L	.	.	.
.	8B\J	.	.	.
1E	2c\	.	2r	.
.	[2c\	.	2G/	2e/
=24	=24	=24	=24	=24
1D	2c\]	2r	2A/	1f
.	2B\	2F/	2F/	.
1r	2.c\	2C/	2G/	2.e/
.	.	2C/	[2G/	.
.	4B\	.	.	4d/
=25	=25	=25	=25	=25
0r	4c\	2E/	4G/]	4e/
.	4B\	.	4A/	4f/
.	4A\	2E/	4B\	1g
.	4G\	.	4c\	.
.	1A	1D	1d	.
.	.	.	.	2f#i/
=26	=26	=26	=26	=26
1r	1G	2r	2.B\	2g/
.	.	2.G/	.	2b\
.	.	.	4c\	.
1G	1r	.	2d\	2b\
.	.	4F/	.	.
.	.	4E/	[2e\	[2g/
.	.	4D/	.	.
=27	=27	=27	=27	=27
2G\	0r	4C/	4e\]	2g/]
.	.	4D/	4d\	.
1G	.	4E/	1c	2e/
.	.	4C/	.	.
.	.	1D	.	1f
2F\	.	.	2B\	.
=28	=28	=28	=28	=28
1G	1r	1C	0c	1e
2E\	1c	1G	.	2.cc\
[2C/	.	.	.	.
.	.	.	.	4b\
=29	=29	=29	=29	=29
4C/]	2c\	2E/	0r	2a/
4D\	.	.	.	.
4E\	1c	2C/	.	2g/
4C/	.	.	.	.
1D	.	1F	.	1f
.	2B\	.	.	.
=30	=30	=30	=30	=30
1C	1c	1G	2.c\	1e
.	.	.	4d\	.
1r	2A\	1r	4e\	1r
.	.	.	4c\	.
.	[2F\	.	2d\	.
=31	=31	=31	=31	=31
0r	4F\]	0r	2c\	1r
.	4G\	.	.	.
.	4A\	.	1f	.
.	4F\	.	.	.
.	1G	.	.	2r
.	.	.	2e\	2g/
=32	=32	=32	=32	=32
1r	1F	1r	2.f\	2a/
.	.	.	.	2cc\
.	.	.	4e\	.
1G	1r	1G	4d\	2b\
.	.	.	4c\	.
.	.	.	[2d\	[2g/
=33	=33	=33	=33	=33
2G\	0r	2E/	4d\]	2g/]
.	.	.	4c\	.
1G	.	2C/	1c	2e/
.	.	1D	.	1f
2F\	.	.	2B\	.
=34	=34	=34	=34	=34
1G	1r	1C	0c	1e
2E\	1c	1G	.	2.cc\
[2C/	.	.	.	.
.	.	.	.	4b\
=35	=35	=35	=35	=35
4C/]	2c\	2E/	0r	2a/
4D\	.	.	.	.
4E\	1c	2C/	.	2g/
4C/	.	.	.	.
1D	.	1F	.	1f
.	2B\	.	.	.
=36	=36	=36	=36	=36
1C	1c	2G/	2.c\	1e
.	.	2E/	.	.
.	.	.	4d\	.
1r	2A\	2C/	4e\	1r
.	.	.	4c\	.
.	[2F\	[2F/	2d\	.
=37	=37	=37	=37	=37
0r	4F\]	4F/]	2c\	1r
.	4G\	4E/	.	.
.	4A\	2D/	1f	.
.	4F\	.	.	.
.	1G	1C	.	2r
.	.	.	2e\	2g/
=38	=38	=38	=38	=38
0r	1F	0r	2f\	2a/
.	.	.	2c\	2cc\
.	1r	.	2d\	2b\
.	.	.	2f\	[2a/
=39	=39	=39	=39	=39
0r	0r	0r	2e\	4a/]
.	.	.	.	4g/
.	.	.	1d	2f/
.	.	.	.	1e
.	.	.	2c\	.
=40	=40	=40	=40	=40
1r	0r	2r	2d\	1d
.	.	2G/	2B\	.
2r	.	2A/	1A	1r
2C/	.	2c\	.	.
=41	=41	=41	=41	=41
2D\	0r	2B\	0r	0r
2F\	.	2.A/	.	.
2E\	.	.	.	.
.	.	4G/	.	.
[2D\	.	2F/	.	.
=42	=42	=42	=42	=42
4D\]	1r	1E	0r	0r
4C#i/	.	.	.	.
2C#i/	.	.	.	.
1D	2r	1D	.	.
.	2F\	.	.	.
=43	=43	=43	=43	=43
2C/	2G\	0r	0r	1r
2.D\	2B-i\	.	.	.
.	2A\	.	.	2r
4C/	.	.	.	.
2BB/	[2G\	.	.	2g/
=44	=44	=44	=44	=44
1AA	4G\]	1r	0r	2a/
.	4F#i\	.	.	.
.	2F#i\	.	.	2cc\
1GG	1G	2r	.	1b
.	.	2G/	.	.
=45	=45	=45	=45	=45
0r	2F\	2A/	1r	0r
.	2.G\	2B\	.	.
.	.	2G/	2r	.
.	4F\	.	.	.
.	2E\	[2c\	2c\	.
=46	=46	=46	=46	=46
0r	1D	2c\]	2d\	1r
.	.	2B\	2f\	.
.	1C	1c	1e	2r
.	.	.	.	2g/
=47	=47	=47	=47	=47
0r	0r	0r	2r	2a/
.	.	.	2c\	2cc\
.	.	.	2d\	2b\
.	.	.	2f\	[2a/
=48	=48	=48	=48	=48
0r	0r	0r	2e\	4a/]
.	.	.	.	4g/
.	.	.	1d	2f/
.	.	.	.	1e
.	.	.	2c\	.
=49	=49	=49	=49	=49
1r	0r	2r	2d\	1d
.	.	2G/	2B\	.
2r	.	2A/	1A	1r
2C/	.	2c\	.	.
=50	=50	=50	=50	=50
2D\	0r	2B\	0r	0r
2F\	.	2.A/	.	.
2E\	.	.	.	.
.	.	4G/	.	.
[2D\	.	2F/	.	.
=51	=51	=51	=51	=51
2D\]	1r	1E	0r	0r
2C#i/	.	.	.	.
1D	2r	1D	.	.
.	2F\	.	.	.
=52	=52	=52	=52	=52
2C/	2G\	0r	0r	1r
2.D\	2B-i\	.	.	.
.	2A\	.	.	2r
4C/	.	.	.	.
2BB/	[2G\	.	.	2g/
=53	=53	=53	=53	=53
1AA	2G\]	1r	0r	2a/
.	2F#i\	.	.	2cc\
1GG	1G	2r	.	1b
.	.	2G/	.	.
=54	=54	=54	=54	=54
0r	2F\	2c\	1r	2a/
.	2.G\	2B\	.	2.b\
.	.	2G/	2r	.
.	4F\	.	.	4a/
.	2E\	2G/	2c\	2g/
=55	=55	=55	=55	=55
0r	1D	4A/	2d\	1f
.	.	4F/	.	.
.	.	4A/	2f\	.
.	.	4B\	.	.
.	1C	2c\	1e	2r
.	.	2c\	.	[2g/
=56	=56	=56	=56	=56
1.G	0r	0C	1e	2g/]
.	.	.	.	2g/
.	.	.	2e\	[1g
2G\	.	.	[2e\	.
=57	=57	=57	=57	=57
1G	0r	0r	2e\]	1g]
.	.	.	4d\	.
.	.	.	4c\	.
1G	.	.	2B\	1g
.	.	.	4c\	.
.	.	.	4B\	.
=58	=58	=58	=58	=58
0C	1.c	2r	2c\	1e
.	.	2C/	2g\	.
.	.	2.C/	2g\	2.e/
.	2c\	.	[2g\	.
.	.	4D/	.	4f/
=59	=59	=59	=59	=59
0r	1c	2E/	4g\]	2g/
.	.	.	4c\	.
.	.	2F/	1f	1a
.	1c	1C	.	.
.	.	.	2e\	2g/
=60	=60	=60	=60	=60
0r	0F	2.F/	0f	2a/
.	.	.	.	1cc
.	.	4G/	.	.
.	.	1A	.	.
.	.	.	.	4b\
.	.	.	.	4a/
=61	=61	=61	=61	=61
1.G	0r	1G	2r	1b
.	.	.	2g\	.
.	.	[1C	2g\	2r
2G\	.	.	[2e\	[2g/
=62	=62	=62	=62	=62
1G	0r	1C]	2e\]	2g/]
.	.	.	4d\	2g/
.	.	.	4c\	.
1G	.	1r	2B\	1g
.	.	.	4c\	.
.	.	.	4B\	.
=63	=63	=63	=63	=63
0C	1.c	2r	2c\	1e
.	.	2C/	2g\	.
.	.	2.C/	2g\	2.e/
.	2c\	.	[2g\	.
.	.	4D/	.	4f/
=64	=64	=64	=64	=64
0r	1c	2E/	4g\]	2g/
.	.	.	4c\	.
.	.	2F/	1f	1a
.	1c	1C	.	.
.	.	.	2e\	2g/
=65	=65	=65	=65	=65
0r	0F	2.F/	0f	2a/
.	.	.	.	1cc
.	.	4G/	.	.
.	.	1A	.	.
.	.	.	.	4b\
.	.	.	.	4a/
=66	=66	=66	=66	=66
2r	0r	2.G/	1g	2b\
1G	.	.	.	2.dd\
.	.	4A/	.	.
.	.	2B\	2e\	.
.	.	.	.	4g/
2F\	.	2c\	2f\	[2cc\
=67	=67	=67	=67	=67
1G	0r	1G	1d	2cc\]
.	.	.	.	2b\
2.C/	.	2.E/	1c	1cc
4D\	.	4F/	.	.
=68	=68	=68	=68	=68
2E\	2r	2G/	2r	0r
2F\	1c	2A/	2c\	.
1D	.	1F	1d	.
.	2B\	.	.	.
=69	=69	=69	=69	=69
1C	1c	1G	1e	2r
.	.	.	.	2g/
1r	2.F\	1r	2.f\	2.a/
.	4G\	.	4e\	4b\
=70	=70	=70	=70	=70
0r	2A\	0r	2c\	2cc\
.	2B\	.	1f	2dd\
.	1G	.	.	1b
.	.	.	2e\	.
=71	=71	=71	=71	=71
1.D	1F	0d	1.f	2a/
.	.	.	.	2.dd\
.	1r	.	.	.
.	.	.	.	4cc\
2D\	.	.	2d\	2b\
=72	=72	=72	=72	=72
1D	0r	2.B\	0d	2a/
.	.	.	.	1g
.	.	4c\	.	.
1D	.	1A	.	.
.	.	.	.	2f#i/
=73	=73	=73	=73	=73
*M3/1	*M3/1	*M3/1	*M3/1	*M3/1
*met(3)	*met()	*met(3)	*met(3)	*met(3)
!!primary-mensuration: met(3)
!	!LO:N:vis=1.	!	!	!
1E	[y0G\	1G	0.r	0.g
1E	.	1G	.	.
[1C	4G\]yy	[1E	.	.
!	!LO:N:vis=2	!	!	!
.	2.G\	.	.	.
=74	=74	=74	=74	=74
!	!LO:N:vis=1	!	!	!
2C/]	1.G	2E/]	1r	1r
!	!LO:N:vis=1	!	!	!
2D\	.	2F/	.	.
0BB	.	1D	1r	1r
.	1.G	.	.	.
.	.	1D	1B	1dd
=75	=75	=75	=75	=75
*	*M3/1	*	*	*
*	*met(3)	*	*	*
0.AA	1A	0E	1c	1cc
.	1A	.	1.e	1cc
.	[1F	1r	.	[1a
.	.	.	2d\	.
=76	=76	=76	=76	=76
0.r	2F\]	0.r	1.d	2a/]
.	2G\	.	.	2b\
.	0E	.	.	0g
.	.	.	2c#i\	.
.	.	.	1c#i	.
=77	=77	=77	=77	=77
1.D	0.D	0.r	0.d	0.f
2E\	.	.	.	.
2F\	.	.	.	.
2D\	.	.	.	.
=78	=78	=78	=78	=78
0E	0.r	0G	0.r	0.r
[1C	.	[1E	.	.
=79	=79	=79	=79	=79
2C/]	1.G	2E/]	1r	1r
2D\	.	2F/	.	.
0BB	.	1.D	1r	1r
.	2A\	.	.	.
.	2B\	.	1B	1dd
.	2G\	2E/	.	.
=80	=80	=80	=80	=80
0.AA	0A	0.E	1c	1cc
.	.	.	1.e	1cc
.	[1F	.	.	[1a
.	.	.	2d\	.
=81	=81	=81	=81	=81
0.r	2F\]	0.r	1.d	2a/]
.	2G\	.	.	2b\
.	0E	.	.	0g
.	.	.	2c#i\	.
.	.	.	1c#i	.
=82	=82	=82	=82	=82
0A	0.D	0.r	1d	1.f
.	.	.	1.f	.
.	.	.	.	2g/
1F	.	.	.	1a
.	.	.	2e\	.
=83	=83	=83	=83	=83
1G	0.r	0G	1.d	1b
0E	.	.	.	0g
.	.	.	2c#i\	.
.	.	1G	1c#i	.
=84	=84	=84	=84	=84
0D	0d	1.A	0.d	1f
.	.	.	.	1r
.	.	2F/	.	.
1r	1B	1G	.	1dd
=85	=85	=85	=85	=85
0A	1c	1A	0.r	0cc
.	0A	0c	.	.
1F	.	.	.	1a
=86	=86	=86	=86	=86
1G	0G	1.B	0g	1b
0E	.	.	.	0g
.	.	2G/	.	.
.	1r	1G	1e	.
=87	=87	=87	=87	=87
1D	0d	1A	1f	1f
1D	.	1F	0d	1.b-i
1G	1B	1G	.	.
.	.	.	.	2a/
=88	=88	=88	=88	=88
1C	1c	1E	1e	1.g
0D	0A	1.F	0d	.
.	.	.	.	2f#i/
.	.	.	.	1f#i
.	.	2D/	.	.
=89	=89	=89	=89	=89
[0.GGl	[0.Gl	1D	1.B	[0.gl
.	.	0E	.	.
.	.	.	2G/	.
.	.	.	2B\	.
.	.	.	2c\	.
=90	=90	=90	=90	=90
0.GG_	0.G_	[0.Dl	0.d	0.g_
=91	=91	=91	=91	=91
0.GG]	0.G]	0.D]	0.dl	0.g]
!!LO:LB:i:g=z
=92||	=92||	=92||	=92||	=92||
*>B	*>B	*>B	*>B	*>B
*clefF4	*clefF4	*clefGv2	*clefGv2	*clefG2
*k[]	*k[]	*k[]	*k[]	*k[]
*M2/1	*M2/1	*M2/1	*M2/1	*M2/1
*met(C2)	*met(C2)	*met(C2)	*met(C2)	*met(C2)
!!section: Qui tollis
!!!OMD: Qui tollis
0r	0r	0r	2.G/	0g
.	.	.	4A/	.
.	.	.	2B\	.
.	.	.	2c\	.
=93.	=93.	=93.	=93.	=93.
0r	0r	0r	2G/	1g
.	.	.	1c	.
.	.	.	.	1g
.	.	.	2B\	.
=94	=94	=94	=94	=94
0r	0r	2.C/	0c	2.e/
.	.	4D/	.	4f/
.	.	2E/	.	2g/
.	.	2F/	.	2a/
=95.	=95.	=95.	=95.	=95.
0r	0r	2C/	1c	2e/
.	.	1F	.	1a
.	.	.	1c	.
.	.	2E/	.	2g/
=96	=96	=96	=96	=96
0r	0r	2.F/	2.A/	[0a
.	.	4G/	4B\	.
.	.	2A/	2c\	.
.	.	2D/	2d\	.
=97.	=97.	=97.	=97.	=97.
0r	0r	2.F/	2A/	0a]
.	.	.	1d	.
.	.	4G/	.	.
.	.	1A	.	.
.	.	.	2c#i\	.
=98	=98	=98	=98	=98
2.D\	0r	2r	[0d	0r
.	.	2A/	.	.
4E\	.	.	.	.
2F\	.	2A/	.	.
2G\	.	[2B\	.	.
=99.	=99.	=99.	=99.	=99.
2D\	0r	2B\]	0d]	0r
1G	.	4A/	.	.
.	.	4G/	.	.
.	.	1A	.	.
2F#i\	.	.	.	.
=100	=100	=100	=100	=100
[0G	2.G\	1.G	2r	0r
.	.	.	2d\	.
.	4A\	.	.	.
.	2B\	.	2d\	.
.	2c\	2C/	[2e\	.
=101.	=101.	=101.	=101.	=101.
0G]	2G\	1C	2e\]	0r
.	1c	.	4d\	.
.	.	.	4c\	.
.	.	1G	1d	.
.	2B\	.	.	.
=102	=102	=102	=102	=102
2r	[0c	1C	2.c\	2r
2E\	.	.	.	2g/
.	.	.	4d\	.
2E\	.	1r	2e\	2g/
[2F\	.	.	2A/	[2a/
=103.	=103.	=103.	=103.	=103.
2F\]	0c]	0r	1A	2a/]
4E\	.	.	.	4g/
4D\	.	.	.	4f/
1E	.	.	1r	1g
=104	=104	=104	=104	=104
[0D	2r	0r	0d	1f
.	2A\	.	.	.
.	2A\	.	.	2.f/
.	[2B-i\	.	.	.
.	.	.	.	4e/
=105.	=105.	=105.	=105.	=105.
0D]	2B-\]	0r	1d	2f/
.	4A\	.	.	1g
.	4G\	.	.	.
.	1A	.	1d	.
.	.	.	.	2f/
=106	=106	=106	=106	=106
0r	[0G	0r	2.B\	2g/
.	.	.	.	2b\
.	.	.	8c\L	.
.	.	.	8d\J	.
.	.	.	2e\	2cc\
.	.	.	2d\	[2dd\
=107.	=107.	=107.	=107.	=107.
0r	0G]	1r	1e	4dd\]
.	.	.	.	4cc\
.	.	.	.	1cc
.	.	2r	1d	.
.	.	2G/	.	2b\
=108	=108	=108	=108	=108
0r	0r	2A/	0c	0cc
.	.	2A/	.	.
.	.	2F/	.	.
.	.	2F/	.	.
=109.	=109.	=109.	=109.	=109.
0r	0r	2G/	2r	1r
.	.	2G/	2d\	.
.	.	1E	2e\	2r
.	.	.	2e\	2g/
=110	=110	=110	=110	=110
0r	0r	0r	2c\	2a/
.	.	.	2c\	2a/
.	.	.	2d\	2f/
.	.	.	2d\	2f/
=111.	=111.	=111.	=111.	=111.
2r	0r	1r	1B	2g/
2G\	.	.	.	2g/
2A\	.	2r	2r	1e
2A\	.	2c\	2e\	.
=112	=112	=112	=112	=112
2F\	0r	2d\	2f\	2r
2F\	.	2d\	2f\	2a/
2G\	.	2B\	2d\	2b\
2G\	.	[2G/	2d\	2b\
=113.	=113.	=113.	=113.	=113.
1E	2r	2G/]	1e	2g/
.	2c\	4F/	.	2g/
.	.	4E/	.	.
1r	2d\	1D	1f	1f
.	2d\	.	.	.
=114	=114	=114	=114	=114
0r	2B\	1G	1d	1g
.	2B\	.	.	.
.	2c\	1C	1r	1e
.	2c\	.	.	.
=115.	=115.	=115.	=115.	=115.
1r	1A	[0c	[0e	1r
[1C	1r	.	.	[1cc
=116	=116	=116	=116	=116
1C]	0r	1c]	1e]	1cc]
1C	.	1c	1e	1cc
=117.	=117.	=117.	=117.	=117.
1D	1r	1F	1f	1a
1D	[1F	[1A	[1f	1dd
=118	=118	=118	=118	=118
2D\	1F]	1A]	2f\]	2dd\
2D\	.	.	2f\	2dd\
2D\	1F	1A	2f\	2dd\
2D\	.	.	2f\	[2dd\
=119.	=119.	=119.	=119.	=119.
[0GG	1G	1B	2d\	2dd\]
.	.	.	1g	1b
.	1G	1B	.	.
.	.	.	[2e\	[2g/
=120	=120	=120	=120	=120
0GG]	2G\	0G	2e\]	2g/]
.	2G\	.	4d\	4f/
.	.	.	4c\	4e/
.	2G\	.	2.B\	2.d/
.	2G\	.	.	.
.	.	.	4c\	4e/
=121.	=121.	=121.	=121.	=121.
0r	[0C	0G	1c	1e
.	.	.	2r	2r
.	.	.	2e\	2g/
=122	=122	=122	=122	=122
0r	0C]	1G	2c\	2e/
.	.	.	1e	1g
.	.	4G/	.	.
.	.	4A/	.	.
.	.	4B\	4d\	4f/
.	.	4c\	4c\	4e/
=123.	=123.	=123.	=123.	=123.
[0G	0r	1d	2B\	2d/
.	.	.	2.g\	2dd\
.	.	1G	.	2b\
.	.	.	4f\	.
.	.	.	[2e\	[2g/
=124	=124	=124	=124	=124
0G]	0r	1.B	2e\]	2g/]
.	.	.	4d\	4f/
.	.	.	4c\	4e/
.	.	.	2.B\	2.d/
.	.	2G/	.	.
.	.	.	4c\	4e/
=125.	=125.	=125.	=125.	=125.
2.C/	[0c	1G	0c	2.e/
4D\	.	.	.	4f/
2E\	.	1r	.	2g/
[2F\	.	.	.	[2a/
=126	=126	=126	=126	=126
2F\]	0c]	0r	0r	2a/]
4E\	.	.	.	4g/
4D\	.	.	.	4f/
1E	.	.	.	2.g/
.	.	.	.	4a/
=127.	=127.	=127.	=127.	=127.
0D	2.F\	0r	0r	2b-i\
.	.	.	.	2.a/
.	4G\	.	.	.
.	2A\	.	.	.
.	.	.	.	4g/
.	[2B-i\	.	.	4f/
.	.	.	.	4e/
=128	=128	=128	=128	=128
1r	2B-i\]	0r	1r	2d/
.	4A\	.	.	1g
.	4G\	.	.	.
2r	1A	.	2r	.
2D\	.	.	2d\	2f#i/
=129.	=129.	=129.	=129.	=129.
2E\	0G	1r	2c\	0g
2F\	.	.	1d	.
1G	.	1B	.	.
.	.	.	2e\	.
=130	=130	=130	=130	=130
2.F\	1r	1A	4f\	0r
.	.	.	4e\	.
.	.	.	4d\	.
4E\	.	.	4c\	.
2D\	2r	2F/	4B\	.
.	.	.	4A/	.
[2C/	2G\	4G/	4c\	.
.	.	4F/	4B\	.
=131.	=131.	=131.	=131.	=131.
4C/]	2A\	4E/	4A/	0r
4BB/	.	4D/	4G/	.
4AA/	2B\	1D	1G	.
4GG/	.	.	.	.
1AA	1c	.	.	.
.	.	2C/	2F#i/	.
=132	=132	=132	=132	=132
1GG	2.B\	2D/	1G	1g
.	.	2.G/	.	.
.	4A\	.	.	.
1r	2G\	.	1r	2g/
.	.	4A/	.	.
.	[2F\	4B\	.	[2a/
.	.	4c\	.	.
=133.	=133.	=133.	=133.	=133.
1r	4F\]	2d\	0r	4a/]
.	4E\	.	.	4g/
.	4D\	1c	.	4f/
.	4C/	.	.	4e/
2r	1D	.	.	1f
2D\	.	2B\	.	.
=134	=134	=134	=134	=134
2E\	1C	1c	2r	2e/
2F\	.	.	2c\	2cc\
1G	1r	2r	2e\	2b\
.	.	2B\	2e\	2g/
=135.	=135.	=135.	=135.	=135.
2.F\	1r	2A/	4f\	2a/
.	.	.	4e\	.
.	.	2A/	4d\	1f
4E\	.	.	4c\	.
2D\	2r	2F/	4B\	.
.	.	.	4A/	.
[2C/	2G\	4G/	4c\	[2e/
.	.	4F/	4B\	.
=136	=136	=136	=136	=136
4C/]	2A\	4E/	4A/	4e/]
4BB/	.	4F/	4G/	4d/
4AA/	2B\	1D	1G	4c/
4GG/	.	.	.	4B/
1AA	1c	.	.	1A
.	.	2C/	2F#i/	.
=137.	=137.	=137.	=137.	=137.
1GG	2.B\	2D/	1G	2r
.	.	2.G/	.	2g/
.	4A\	.	.	.
1r	2G\	.	1r	2g/
.	.	4A/	.	.
.	[2F\	4B\	.	[2a/
.	.	4c\	.	.
=138	=138	=138	=138	=138
0r	4F\]	2d\	0r	4a/]
.	4E\	.	.	4g/
.	4D\	1c	.	4f/
.	4C/	.	.	4e/
.	1D	.	.	1f
.	.	2B\	.	.
=139.	=139.	=139.	=139.	=139.
0r	1C	1c	2r	2e/
.	.	.	2c\	2cc\
.	1r	2r	2d\	2b\
.	.	[2c\	[2e\	2g/
=140	=140	=140	=140	=140
0r	0r	4c\]	2e\]	2a/
.	.	4B\	.	.
.	.	2A/	2c\	2cc\
.	.	1G	2d\	2b\
.	.	.	[2e\	[2g/
=141.	=141.	=141.	=141.	=141.
0r	0r	2E/	4e\]	2g/]
.	.	.	4d\	.
.	.	2F/	1c	1a
.	.	1D	.	.
.	.	.	2B\	4g/
.	.	.	.	4f/
=142	=142	=142	=142	=142
1.C	0r	2C/	1c	1e
.	.	1G	.	.
.	.	.	2r	2r
2C/	.	2G/	2c\	[2e/
=143.	=143.	=143.	=143.	=143.
1C	0r	1G	2c\	2e/]
.	.	.	2c\	2e/
1C	.	1E	1e	2g/
.	.	.	.	2g/
=144	=144	=144	=144	=144
1D	1.F	1A	1d	1f
1D	.	[1A	1d	1f
.	2F\	.	.	.
=145.	=145.	=145.	=145.	=145.
0D	1F	1A]	1.d	1.f
.	1F	1D	.	.
.	.	.	2B\	2d/
=146	=146	=146	=146	=146
[0GG	1G	[0D	0B	0d
.	1G	.	.	.
=147.	=147.	=147.	=147.	=147.
0GG]	0G	0D]	1r	1r
.	.	.	1d	[1g
=148	=148	=148	=148	=148
1r	[0C	1r	1e	1g]
1C	.	1C	1e	1g
=149.	=149.	=149.	=149.	=149.
1C	0C]	1G	2c\	1e
.	.	.	2.c\	.
1AA	.	[1A	.	[1a
.	.	.	4d\	.
.	.	.	4e\	.
.	.	.	4c\	.
=150	=150	=150	=150	=150
[0D	1r	1A]	[0d	1a]
.	1F	1A	.	1d
=151.	=151.	=151.	=151.	=151.
1D]	1F	1F	1d]	0d
1GG	1D	1G	1B	.
=152	=152	=152	=152	=152
0GG	[0G	1D	1B	1r
.	.	2r	1d	[1g
.	.	2D/	.	.
=153.	=153.	=153.	=153.	=153.
1r	1G]	2.C/	1.e	1g]
.	.	4D/	.	.
1C	1C	2E/	.	1g
.	.	2F/	2e\	.
=154	=154	=154	=154	=154
1C	0C	2G/	2c\	1e
.	.	1A	2.c\	.
1AA	.	.	.	1a
.	.	.	4d\	.
.	.	2A/	4e\	.
.	.	.	4c\	.
=155.	=155.	=155.	=155.	=155.
0D	1r	1D	[0d	1a
.	1F	2r	.	2d/
.	.	2A/	.	[2d/
=156	=156	=156	=156	=156
1D	1F	2B\	1d]	2d/]
.	.	2.d\	.	2a/
1GG	1D	.	1B	2b\
.	.	4c\	.	.
.	.	4B\	.	[2dd\
.	.	4A/	.	.
=157.	=157.	=157.	=157.	=157.
0GG	0G	2G/	0B	4dd\]
.	.	.	.	4cc\
.	.	2d\	.	4b\
.	.	.	.	4a/
.	.	1e	.	3g/V
.	.	.	.	3a/
.	.	.	.	3b\Z
=158	=158	=158	=158	=158
0r	1G	1d	0r	3cc\V
.	.	.	.	3dd\
.	.	.	.	3b\Z
.	1C	2c\	.	2cc\
.	.	[2c\	.	2a/
=159.	=159.	=159.	=159.	=159.
0r	0C	2c\]	0r	1g
.	.	2B\	.	.
.	.	2A/	.	2r
.	.	4G/	.	[2cc\
.	.	4F/	.	.
=160	=160	=160	=160	=160
0r	0r	4E/	1r	2cc\]
.	.	4F/	.	.
.	.	4G/	.	2b\
.	.	4E/	.	.
.	.	2F/	2r	2a/
.	.	2E/	[2g\	4g/
.	.	.	.	4f/
=161.	=161.	=161.	=161.	=161.
0r	0r	2C/	2g\]	2e/
.	.	2F/	2f\	2a/
.	.	2E/	2e\	2g/
.	.	2C/	4d\	2e/
.	.	.	4c\	.
=162	=162	=162	=162	=162
0r	0r	2D/	1B	2f/
.	.	2E/	.	2g/
.	.	2F/	2A/	[1a
.	.	[2D/	2d\	.
=163.	=163.	=163.	=163.	=163.
0r	0r	4D/]	2c\	2a/]
.	.	4E/	.	.
.	.	2F/	2A/	4g/
.	.	.	.	4f/
.	.	2G/	2B\	1e
.	.	2A/	2c\	.
=164	=164	=164	=164	=164
0r	0r	2B\	2d\	1d
.	.	1G	4c\	.
.	.	.	4B\	.
.	.	.	1A	1r
.	.	2F#i/	.	.
=165.	=165.	=165.	=165.	=165.
0r	0r	1G	0G	1g
.	.	2r	.	2g/
.	.	2C/	.	2g/
=166	=166	=166	=166	=166
0r	0r	2C/	0r	2g/
.	.	2C/	.	2e/
.	.	2D/	.	2f/
.	.	2E/	.	2g/
=167.	=167.	=167.	=167.	=167.
0r	0r	2.F/	1c	2.a/
.	.	4G/	.	4g/
.	.	2A/	2c\	4f/
.	.	.	.	4e/
.	.	[2F/	2c\	[2a/
=168	=168	=168	=168	=168
0r	0r	4F/]	2c\	4a/]
.	.	4E/	.	4g/
.	.	2F/	2A/	2f/
.	.	2G/	2B\	1e
.	.	2A/	2c\	.
=169.	=169.	=169.	=169.	=169.
1G	0r	1.B	2d\	1d
.	.	.	2.g\	.
2G\	.	.	.	2r
.	.	.	4f\	.
2G\	.	2G/	4e\	[2g/
.	.	.	4d\	.
=170	=170	=170	=170	=170
2G\	0r	1G	2.e\	2g/]
2E\	.	.	.	2g/
.	.	.	4f\	.
2F\	.	1r	1d	2a/
2G\	.	.	.	2b\
=171.	=171.	=171.	=171.	=171.
2.A\	1c	0r	1c	2.cc\
4G\	.	.	.	4b\
4F\	2c\	.	1r	4a/
4E\	.	.	.	4g/
[2A\	2c\	.	.	2cc\
=172	=172	=172	=172	=172
2A\]	2c\	1r	1e	2.a/
4G\	2A\	.	.	.
4F\	.	.	.	4b\
1E	2B\	1G	2e\	1g
.	2c\	.	2e\	.
=173.	=173.	=173.	=173.	=173.
[0D	2.d\	1A	2f\	2r
.	.	.	2f\	2.dd\
.	4c\	.	.	.
.	4B\	2F/	1f	.
.	4A\	.	.	4cc\
.	[2d\	2D/	.	2b\
=174	=174	=174	=174	=174
0D]	2d\]	2F/	1d	2a/
.	4c\	2G/	.	1g
.	4B\	.	.	.
.	1A	1A	1d	.
.	.	.	.	2f#i/
=175.	=175.	=175.	=175.	=175.
2r	[0G	1.B	2r	4g/
.	.	.	.	4a/
2G\	.	.	2d\	4b\
.	.	.	.	4cc\
2G\	.	.	2d\	4dd\
.	.	.	.	4ee\
2G\	.	4c\	2d\	2dd\
.	.	4d\	.	.
=176	=176	=176	=176	=176
4E\	0G]	1e	1g	2g/
4C/	.	.	.	.
4E\	.	.	.	1cc
4F\	.	.	.	.
2G\	.	1d	1g	.
2G\	.	.	.	2b\
=177.	=177.	=177.	=177.	=177.
2.A\	2r	0c	1e	2.cc\
.	2c\	.	.	.
4G\	.	.	.	4b\
4F\	2c\	.	2.f\	4a/
4E\	.	.	.	4g/
[2F\	2c\	.	.	[2a/
.	.	.	4e\	.
=178	=178	=178	=178	=178
2F\]	4A\	1r	2c\	2a/]
.	4F\	.	.	.
4E\	4A\	.	2d\	2a/
4D\	4B\	.	.	.
1E	2c\	2r	1G	2g/
.	2c\	2G/	.	2e/
=179.	=179.	=179.	=179.	=179.
0D	2.d\	2.A/	1r	2f/
.	.	.	.	2.a/
.	4c\	4G/	.	.
.	4B\	4F/	1d	.
.	4A\	4E/	.	4g/
.	[2B\	[2D/	.	4f/
.	.	.	.	4e/
=180	=180	=180	=180	=180
0D	2B\]	2D/]	0d	2d/
.	4A\	2.d\	.	1g
.	4G\	.	.	.
.	1A	.	.	.
.	.	4c\	.	.
.	.	2A/	.	2f#i/
=181.	=181.	=181.	=181.	=181.
[0GGl	[0Gl	2B\	[0dl	[0gl
.	.	1G	.	.
.	.	4F/	.	.
.	.	4E/	.	.
=182	=182	=182	=182	=182
0GG]	0G]	0Dl	0d]	0g]
==	==	==	==	==
*-	*-	*-	*-	*-
!!!RDF**kern: V=start of tuplet marker
!!!RDF**kern: Z=end of tuplet marker
!!!RDF**kern: l=long note in original notation
!!!RDF**kern: i=editorial accidental
!!!ENC:	Chris Gage 10/15/2012
!!!END:	2012/11/11/
!!!EED:	Jesse Rodin
!!!EEV:	2013/04/27/
!!!ONB:	Translated from MusicXML and edited on 2012/12/15/ by Craig Sapp
!!muse2ps: T^@{OPR}^u^@{ONM}{. }@{OTL}^C^@{COM}^i2I150v95,95,95,95,130Q16
